logos/leveldb.svg

<?xml version="1.0" encoding="UTF-8" standalone="no"?>
<svg width="256px" height="329px" viewBox="0 0 256 329" version="1.1" xmlns="http://www.w3.org/2000/svg" xmlns:xlink="http://www.w3.org/1999/xlink" preserveAspectRatio="xMidYMid">
	<g>
		<path d="M128,72.1702128 L0,135.366866 L0,263.90243 L128,328.170213 L256,263.90243 L256,135.366866 L128,72.1702128 L128,72.1702128 Z" fill="#D4EB95"></path>
		<path d="M128,51.7446809 L0,114.941334 L0,243.476898 L128,307.744681 L256,243.476898 L256,114.941334 L128,51.7446809 L128,51.7446809 Z" fill="#96DC75"></path>
		<path d="M128,0 L0,63.1966527 L0,191.732217 L128,256 L256,191.732217 L256,63.1966527 L128,0 L128,0 Z" opacity="0.552840909" fill="#317342"></path>
		<path d="M128,122.795274 L0,62.6382979 L0,191.5461 L128,256 L256,191.5461 L256,62.6382979 L128,122.795274 L128,122.795274 Z" opacity="0.552840909" fill="#34954C"></path>
	</g>
</svg>

<svg preserveAspectRatio="xMidYMid" viewBox="0 0 256 329" xmlns="http://www.w3.org/2000/svg">
  <path fill="#D4EB95" d="M128 72.17 0 135.367v128.535l128 64.268 128-64.268V135.367L128 72.17Z"/>
  <path fill="#96DC75" d="M128 51.745 0 114.94v128.536l128 64.268 128-64.268V114.94L128 51.745Z"/>
  <path fill="#317342" d="M128 0 0 63.197v128.535L128 256l128-64.268V63.197L128 0Z" opacity=".553"/>
  <path fill="#34954C" d="M128 122.795 0 62.638v128.908L128 256l128-64.454V62.638l-128 60.157Z" opacity=".553"/>
</svg>
